X:1
T:Adoramus te, Christe - Pitoni
T:#
%%score [ 1 2 3 4 ]
L:1/8
Q:1/4=108
M:4/4
K:D
V:1 treble nm="Soprano" snm="S"
V:2 treble nm="Alto" snm="A"
V:3 treble-8 nm="Tenor" snm="T"
V:4 bass nm="Bass" snm="B"
V:1
"^Adoramus te, Christe" ^A8- | A4 B4 | B4 B4 | ^A8 | %4
w: A\-|* do-|ra- mus|te,|
 (B3 c"^Giuseppe Ottavio Pitoni\n(1657-1743)" d4) | c4 z2 c2 |[M:4/4] c2 c2 d4- | d2 c2 c4 | B8 | %9
w: Chri\- * *|ste, et|be- ne- di\-|* ci- mus|ti-|
 A8- | A4 z2 A2 | A2 A2 d4 | c2 B4 A2 | G4 F4 | B4 B2 A2 | G2 F2 (EFGA | Bc d3 c) B2- | %17
w: bi,|* qui-|a per san-|ctam cru- cem|tu- am,|qui- a per|san- ctam cru\- * * *|* * * * cem|
 B2 (A4 ^G2) | A4 z2 A2- | A2 F2 B4- | B2 A2 (G4 | F3 G) A4 | z2 A2 F2 (d2- | d2 c3) B B2- | %24
w: * tu\- *|am, re\-|* de- mi\-|* sti mun\-|* * dum,|re- de- mi\-|* * sti mun\-|
 (B2 ^A2) B2 d2 | d2 c2 B4 | A2 G4 F2 | B4 A2 A2- | A2 F2 B4- | B2 A2 G4- | G4 F4- | %31
w: * * dum, qui-|a per san-|ctam cru- cem|tu- am, re\-|* de- mi\-|* sti mun\-|* dum.|
 F4 z2[Q:1/4=106] c2- |[Q:1/4=104] c2[Q:1/4=102] F2[Q:1/4=99] d4- | %33
w: * Mi\-|* se- re\-|
[Q:1/4=96] d2[Q:1/4=94] c2[Q:1/4=91] B4 |[Q:1/4=90] !fermata!^A8 |] %35
w: * re no-|bis.|
V:2
 F8- | F4 F4 | F4 E4 | (F3 E/D/ C4) | (D2 E2 F2 G2) | A4 z2 A2 |[M:4/4] A2 A2 A4- | A2 A2 A4 | %8
w: A\-|* do-|ra- mus|te, * * *|Chri\- * * *|ste, et|be- ne- di\-|* ci- mus|
 (G4 F2 GF | E8) | F4 z2 F2 | F2 E2 F4 | F2 G4 F2 | E4 D2 F2 | F2 E2 D2 C2 | E2 F2 (G4- | %16
w: ti\- * * *||bi, qui-|a per san-|ctam cru- cem|tu- am, qui-|a per san- ctam|cru- cem tu\-|
 G2 FE F4) | E8 | z2 E4 C2 | (F4 E2) (DC) | (DE F4) E2 | z2 F4 E2 | A4 (D3 C) | (DE F4 E2) | %24
w: |am,|re- de-|mi\- * sti *|mun\- * * dum,|re- de-|mi- sti *|mun\- * * *|
 F6 D2 | F2 F2 G4 | F2 E4 C2 | B,4 C4 | F4 D4 | G6 F2 | (E2 D2 C4) | D2 D4 C2 | F8 | F4 F4 | %34
w: dum, qui-|a per san-|ctam cru- cem|tu- am,|re- de-|mi- sti|mun\- * *|dum. Mi- se-|re-|re no-|
 !fermata!F8 |] %35
w: bis.|
V:3
 c8- | c4 d4 | d4 B4 | c4 (f4- | f2 e2 d4) | e4 z2 e2 |[M:4/4][K:treble-8] e2 e2 f4- | f2 e2 e4 | %8
w: A\-|* do-|ra- mus|te, Chri\-||ste, et|be- ne- di\-|* ci- mus|
 (e2 dc d2 G2) | A8 | z4 d4 | d2 c2 B4 | A2 G4 D2 | E4 F4 | z4 f4 | B2 B2 B4 | B4 d4- | d2 c2 B4 | %18
w: ti\- * * * *|bi,|qui-|a per san-|ctam cru- cem|tu- am,|qui-|a per san-|ctam cru\-|* cem tu-|
 A2 c4 A2 | d4 G4 | (G2 A2 B2 c2) | d2 d4 c2 | f6 f2 | (B2 c2 d2 cB) | c4 B2 f2 | B2 c2 d4 | %26
w: am, re- de-|mi- sti|mun\- * * *|dum, re- de-|mi- sti|mun\- * * * *|* dum, qui-|a per san-|
 d2 B4 A2 | (d2 e2 f3 e/d/) | c2 d4 B2 | e6 d2 | (c2 B4 ^A2) | B4 A4 | A2 (d3 c B2- | B2) A2 d4 | %34
w: ctam cru- cem|tu\- * * * *|am, re- de-|mi- sti|mun\- * *|dum. Mi-|se- re\- * *|* re no-|
 !fermata!c8 |] %35
w: bis.|
V:4
 F,8- | F,4 B,4 | B,4 G,4 | F,8 | B,8 | A,4 z2 A,2 |[M:4/4] A,2 A,2 D,4- | D,2 A,2 A,4 | %8
w: A\-|* do-|ra- mus|te,|Chri-|ste, et|be- ne- di\-|* ci- mus|
 (E,F,G,A, B,C D2- | D2 CB, C4 | D4) D,4 | z8 | z8 | z2 B,2 B,2 A,2 | G,4 F,4 | E,2 ^D,2 (E,3 F, | %16
w: ti\- * * * * * *||* bi,|||qui- a per|san- ctam|cru- cem tu\- *|
 G,4 D,4 | E,8) | A,8 | z8 | z8 | z4 A,4- | A,2 F,2 B,4- | B,2 A,2 G,4 | F,4 z2 B,2 | B,2 A,2 G,4 | %26
w: ||am,|||re-|* de- mi\-|* sti mun-|dum, qui-|a per san-|
 D,2 E,4 F,2 | G,4 F,2 F,2- | F,2 D,2 G,4- | G,2 F,2 E,4- | (E,4 F,4) | B,,4 F,4 | D,4 B,,4- | %33
w: ctam cru- cem|tu- am, re\-|* de- mi\-|* sti mun\-||dum. Mi-|se- re\-|
 B,,2 F,2 B,,4 | !fermata!F,8 |] %35
w: * re no-|bis.|

